build/images/logo.svg

<svg width="112" height="19" viewBox="0 0 112 19" fill="none" xmlns="http://www.w3.org/2000/svg">
<path d="M6.57422 15.5039C7.19922 15.5039 7.70703 15.332 8.09766 14.9883C8.48828 14.6445 8.69141 14.1875 8.70703 13.6172H11.8828C11.875 14.4766 11.6406 15.2656 11.1797 15.9844C10.7188 16.6953 10.0859 17.25 9.28125 17.6484C8.48438 18.0391 7.60156 18.2344 6.63281 18.2344C4.82031 18.2344 3.39062 17.6602 2.34375 16.5117C1.29688 15.3555 0.773438 13.7617 0.773438 11.7305V11.5078C0.773438 9.55469 1.29297 7.99609 2.33203 6.83203C3.37109 5.66797 4.79688 5.08594 6.60938 5.08594C8.19531 5.08594 9.46484 5.53906 10.418 6.44531C11.3789 7.34375 11.8672 8.54297 11.8828 10.043H8.70703C8.69141 9.38672 8.48828 8.85547 8.09766 8.44922C7.70703 8.03516 7.19141 7.82812 6.55078 7.82812C5.76172 7.82812 5.16406 8.11719 4.75781 8.69531C4.35938 9.26562 4.16016 10.1953 4.16016 11.4844V11.8359C4.16016 13.1406 4.35938 14.0781 4.75781 14.6484C5.15625 15.2188 5.76172 15.5039 6.57422 15.5039ZM13.2891 11.543C13.2891 10.2852 13.5312 9.16406 14.0156 8.17969C14.5 7.19531 15.1953 6.43359 16.1016 5.89453C17.0156 5.35547 18.0742 5.08594 19.2773 5.08594C20.9883 5.08594 22.3828 5.60938 23.4609 6.65625C24.5469 7.70312 25.1523 9.125 25.2773 10.9219L25.3008 11.7891C25.3008 13.7344 24.7578 15.2969 23.6719 16.4766C22.5859 17.6484 21.1289 18.2344 19.3008 18.2344C17.4727 18.2344 16.0117 17.6484 14.918 16.4766C13.832 15.3047 13.2891 13.7109 13.2891 11.6953V11.543ZM16.6758 11.7891C16.6758 12.9922 16.9023 13.9141 17.3555 14.5547C17.8086 15.1875 18.457 15.5039 19.3008 15.5039C20.1211 15.5039 20.7617 15.1914 21.2227 14.5664C21.6836 13.9336 21.9141 12.9258 21.9141 11.543C21.9141 10.3633 21.6836 9.44922 21.2227 8.80078C20.7617 8.15234 20.1133 7.82812 19.2773 7.82812C18.4492 7.82812 17.8086 8.15234 17.3555 8.80078C16.9023 9.44141 16.6758 10.4375 16.6758 11.7891ZM26.8594 11.5664C26.8594 9.58984 27.3008 8.01562 28.1836 6.84375C29.0742 5.67188 30.2891 5.08594 31.8281 5.08594C33.0625 5.08594 34.082 5.54688 34.8867 6.46875V0H38.2852V18H35.2266L35.0625 16.6523C34.2188 17.707 33.1328 18.2344 31.8047 18.2344C30.3125 18.2344 29.1133 17.6484 28.207 16.4766C27.3086 15.2969 26.8594 13.6602 26.8594 11.5664ZM30.2461 11.8125C30.2461 13 30.4531 13.9102 30.8672 14.543C31.2812 15.1758 31.8828 15.4922 32.6719 15.4922C33.7188 15.4922 34.457 15.0508 34.8867 14.168V9.16406C34.4648 8.28125 33.7344 7.83984 32.6953 7.83984C31.0625 7.83984 30.2461 9.16406 30.2461 11.8125ZM46.7461 18.2344C44.8867 18.2344 43.3711 17.6641 42.1992 16.5234C41.0352 15.3828 40.4531 13.8633 40.4531 11.9648V11.6367C40.4531 10.3633 40.6992 9.22656 41.1914 8.22656C41.6836 7.21875 42.3789 6.44531 43.2773 5.90625C44.1836 5.35938 45.2148 5.08594 46.3711 5.08594C48.1055 5.08594 49.4688 5.63281 50.4609 6.72656C51.4609 7.82031 51.9609 9.37109 51.9609 11.3789V12.7617H43.8867C43.9961 13.5898 44.3242 14.2539 44.8711 14.7539C45.4258 15.2539 46.125 15.5039 46.9688 15.5039C48.2734 15.5039 49.293 15.0312 50.0273 14.0859L51.6914 15.9492C51.1836 16.668 50.4961 17.2305 49.6289 17.6367C48.7617 18.0352 47.8008 18.2344 46.7461 18.2344ZM46.3594 7.82812C45.6875 7.82812 45.1406 8.05469 44.7188 8.50781C44.3047 8.96094 44.0391 9.60938 43.9219 10.4531H48.6328V10.1836C48.6172 9.43359 48.4141 8.85547 48.0234 8.44922C47.6328 8.03516 47.0781 7.82812 46.3594 7.82812ZM61.4883 16.7109C60.6523 17.7266 59.4961 18.2344 58.0195 18.2344C56.6602 18.2344 55.6211 17.8438 54.9023 17.0625C54.1914 16.2812 53.8281 15.1367 53.8125 13.6289V5.32031H57.1992V13.5117C57.1992 14.832 57.8008 15.4922 59.0039 15.4922C60.1523 15.4922 60.9414 15.0938 61.3711 14.2969V5.32031H64.7695V18H61.582L61.4883 16.7109ZM70.4414 5.32031L70.5469 6.78516C71.4531 5.65234 72.668 5.08594 74.1914 5.08594C75.5352 5.08594 76.5352 5.48047 77.1914 6.26953C77.8477 7.05859 78.1836 8.23828 78.1992 9.80859V18H74.8125V9.89062C74.8125 9.17188 74.6562 8.65234 74.3438 8.33203C74.0312 8.00391 73.5117 7.83984 72.7852 7.83984C71.832 7.83984 71.1172 8.24609 70.6406 9.05859V18H67.2539V5.32031H70.4414ZM84.3516 18H80.9531V5.32031H84.3516V18ZM80.7539 2.03906C80.7539 1.53125 80.9219 1.11328 81.2578 0.785156C81.6016 0.457031 82.0664 0.292969 82.6523 0.292969C83.2305 0.292969 83.6914 0.457031 84.0352 0.785156C84.3789 1.11328 84.5508 1.53125 84.5508 2.03906C84.5508 2.55469 84.375 2.97656 84.0234 3.30469C83.6797 3.63281 83.2227 3.79688 82.6523 3.79688C82.082 3.79688 81.6211 3.63281 81.2695 3.30469C80.9258 2.97656 80.7539 2.55469 80.7539 2.03906ZM86.625 11.543C86.625 10.2852 86.8672 9.16406 87.3516 8.17969C87.8359 7.19531 88.5312 6.43359 89.4375 5.89453C90.3516 5.35547 91.4102 5.08594 92.6133 5.08594C94.3242 5.08594 95.7188 5.60938 96.7969 6.65625C97.8828 7.70312 98.4883 9.125 98.6133 10.9219L98.6367 11.7891C98.6367 13.7344 98.0938 15.2969 97.0078 16.4766C95.9219 17.6484 94.4648 18.2344 92.6367 18.2344C90.8086 18.2344 89.3477 17.6484 88.2539 16.4766C87.168 15.3047 86.625 13.7109 86.625 11.6953V11.543ZM90.0117 11.7891C90.0117 12.9922 90.2383 13.9141 90.6914 14.5547C91.1445 15.1875 91.793 15.5039 92.6367 15.5039C93.457 15.5039 94.0977 15.1914 94.5586 14.5664C95.0195 13.9336 95.25 12.9258 95.25 11.543C95.25 10.3633 95.0195 9.44922 94.5586 8.80078C94.0977 8.15234 93.4492 7.82812 92.6133 7.82812C91.7852 7.82812 91.1445 8.15234 90.6914 8.80078C90.2383 9.44141 90.0117 10.4375 90.0117 11.7891ZM103.84 5.32031L103.945 6.78516C104.852 5.65234 106.066 5.08594 107.59 5.08594C108.934 5.08594 109.934 5.48047 110.59 6.26953C111.246 7.05859 111.582 8.23828 111.598 9.80859V18H108.211V9.89062C108.211 9.17188 108.055 8.65234 107.742 8.33203C107.43 8.00391 106.91 7.83984 106.184 7.83984C105.23 7.83984 104.516 8.24609 104.039 9.05859V18H100.652V5.32031H103.84Z" fill="white"/>
</svg>

<svg width="112" height="19" fill="none" xmlns="http://www.w3.org/2000/svg"><path d="M6.574 15.504c.625 0 1.133-.172 1.524-.516.39-.343.593-.8.609-1.37h3.176a4.374 4.374 0 01-.703 2.366c-.461.711-1.094 1.266-1.899 1.664-.797.391-1.68.586-2.648.586-1.813 0-3.242-.574-4.29-1.722-1.046-1.157-1.57-2.75-1.57-4.782v-.222c0-1.953.52-3.512 1.559-4.676 1.04-1.164 2.465-1.746 4.277-1.746 1.586 0 2.856.453 3.809 1.36.96.898 1.45 2.097 1.465 3.597H8.707c-.016-.656-.219-1.188-.61-1.594-.39-.414-.906-.62-1.546-.62-.79 0-1.387.288-1.793.866-.399.57-.598 1.5-.598 2.79v.35c0 1.306.2 2.243.598 2.813.398.57 1.004.856 1.816.856zm6.715-3.961c0-1.258.242-2.379.727-3.363.484-.985 1.18-1.746 2.086-2.285.914-.54 1.972-.81 3.175-.81 1.711 0 3.106.524 4.184 1.571 1.086 1.047 1.691 2.469 1.816 4.266l.024.867c0 1.945-.543 3.508-1.63 4.688-1.085 1.171-2.542 1.757-4.37 1.757-1.828 0-3.29-.586-4.383-1.757-1.086-1.172-1.629-2.766-1.629-4.782v-.152zm3.387.246c0 1.203.226 2.125.68 2.766.453.633 1.101.949 1.945.949.82 0 1.46-.313 1.922-.938.46-.632.691-1.64.691-3.023 0-1.18-.23-2.094-.691-2.742-.461-.649-1.11-.973-1.946-.973-.828 0-1.468.324-1.922.973-.453.64-.68 1.636-.68 2.988zm10.183-.223c0-1.976.442-3.55 1.325-4.722.89-1.172 2.105-1.758 3.644-1.758 1.235 0 2.254.46 3.059 1.383V0h3.398v18h-3.058l-.164-1.348c-.844 1.055-1.93 1.582-3.258 1.582-1.492 0-2.692-.586-3.598-1.757-.898-1.18-1.348-2.817-1.348-4.91zm3.387.246c0 1.188.207 2.098.621 2.731.414.633 1.016.95 1.805.95 1.047 0 1.785-.442 2.215-1.325V9.164c-.422-.883-1.153-1.324-2.192-1.324-1.633 0-2.449 1.324-2.449 3.973zm16.5 6.422c-1.86 0-3.375-.57-4.547-1.71-1.164-1.141-1.746-2.66-1.746-4.56v-.327c0-1.274.246-2.41.738-3.41.493-1.008 1.188-1.782 2.086-2.32.907-.548 1.938-.821 3.094-.821 1.734 0 3.098.547 4.09 1.64 1 1.094 1.5 2.645 1.5 4.653v1.383h-8.074c.11.828.437 1.492.984 1.992.555.5 1.254.75 2.098.75 1.304 0 2.324-.473 3.058-1.418l1.664 1.863c-.507.719-1.195 1.281-2.062 1.688-.867.398-1.828.597-2.883.597zM46.36 7.828c-.672 0-1.218.227-1.64.68-.414.453-.68 1.101-.797 1.945h4.71v-.27c-.015-.75-.218-1.328-.609-1.734-.39-.414-.945-.62-1.664-.62zm15.13 8.883c-.837 1.016-1.993 1.523-3.47 1.523-1.359 0-2.398-.39-3.117-1.172-.71-.78-1.074-1.925-1.09-3.433V5.32H57.2v8.192c0 1.32.602 1.98 1.805 1.98 1.148 0 1.937-.398 2.367-1.195V5.32h3.398V18h-3.187l-.094-1.29zM70.44 5.32l.106 1.464c.906-1.133 2.121-1.7 3.644-1.7 1.344 0 2.344.395 3 1.185.657.789.993 1.968 1.008 3.539V18h-3.386V9.89c0-.718-.157-1.238-.47-1.558-.312-.328-.831-.492-1.558-.492-.953 0-1.668.406-2.144 1.219V18h-3.387V5.32h3.187zM84.351 18h-3.398V5.32h3.399V18zM80.755 2.04c0-.509.168-.927.504-1.255.344-.328.808-.492 1.394-.492.579 0 1.04.164 1.383.492.344.328.516.746.516 1.254 0 .516-.176.938-.528 1.266-.343.328-.8.492-1.37.492-.571 0-1.032-.164-1.384-.492-.343-.328-.515-.75-.515-1.266zm5.871 9.503c0-1.258.242-2.379.727-3.363.484-.985 1.18-1.746 2.085-2.285.915-.54 1.973-.81 3.176-.81 1.711 0 3.106.524 4.184 1.571 1.086 1.047 1.691 2.469 1.816 4.266l.024.867c0 1.945-.543 3.508-1.63 4.688-1.085 1.171-2.542 1.757-4.37 1.757-1.828 0-3.29-.586-4.383-1.757-1.086-1.172-1.629-2.766-1.629-4.782v-.152zm3.387.246c0 1.203.226 2.125.68 2.766.453.633 1.101.949 1.945.949.82 0 1.46-.313 1.922-.938.46-.632.691-1.64.691-3.023 0-1.18-.23-2.094-.691-2.742-.461-.649-1.11-.973-1.946-.973-.828 0-1.469.324-1.922.973-.453.64-.68 1.636-.68 2.988zM103.84 5.32l.105 1.465c.907-1.133 2.121-1.7 3.645-1.7 1.344 0 2.344.395 3 1.185.656.789.992 1.968 1.008 3.539V18h-3.387V9.89c0-.718-.156-1.238-.469-1.558-.312-.328-.832-.492-1.558-.492-.954 0-1.668.406-2.145 1.219V18h-3.387V5.32h3.188z" fill="#fff"/></svg>.32031L70.5469 6.78516C71.4531 5.65234 72.668 5.08594 74.1914 5.08594C75.5352 5.08594 76.5352 5.48047 77.1914 6.26953C77.8477 7.05859 78.1836 8.23828 78.1992 9.80859V18H74.8125V9.89062C74.8125 9.17188 74.6562 8.65234 74.3438 8.33203C74.0312 8.00391 73.5117 7.83984 72.7852 7.83984C71.832 7.83984 71.1172 8.24609 70.6406 9.05859V18H67.2539V5.32031H70.4414ZM84.3516 18H80.9531V5.32031H84.3516V18ZM80.7539 2.03906C80.7539 1.53125 80.9219 1.11328 81.2578 0.785156C81.6016 0.457031 82.0664 0.292969 82.6523 0.292969C83.2305 0.292969 83.6914 0.457031 84.0352 0.785156C84.3789 1.11328 84.5508 1.53125 84.5508 2.03906C84.5508 2.55469 84.375 2.97656 84.0234 3.30469C83.6797 3.63281 83.2227 3.79688 82.6523 3.79688C82.082 3.79688 81.6211 3.63281 81.2695 3.30469C80.9258 2.97656 80.7539 2.55469 80.7539 2.03906ZM86.625 11.543C86.625 10.2852 86.8672 9.16406 87.3516 8.17969C87.8359 7.19531 88.5312 6.43359 89.4375 5.89453C90.3516 5.35547 91.4102 5.08594 92.6133 5.08594C94.3242 5.08594 95.7188 5.60938 96.7969 6.65625C97.8828 7.70312 98.4883 9.125 98.6133 10.9219L98.6367 11.7891C98.6367 13.7344 98.0938 15.2969 97.0078 16.4766C95.9219 17.6484 94.4648 18.2344 92.6367 18.2344C90.8086 18.2344 89.3477 17.6484 88.2539 16.4766C87.168 15.3047 86.625 13.7109 86.625 11.6953V11.543ZM90.0117 11.7891C90.0117 12.9922 90.2383 13.9141 90.6914 14.5547C91.1445 15.1875 91.793 15.5039 92.6367 15.5039C93.457 15.5039 94.0977 15.1914 94.5586 14.5664C95.0195 13.9336 95.25 12.9258 95.25 11.543C95.25 10.3633 95.0195 9.44922 94.5586 8.80078C94.0977 8.15234 93.4492 7.82812 92.6133 7.82812C91.7852 7.82812 91.1445 8.15234 90.6914 8.80078C90.2383 9.44141 90.0117 10.4375 90.0117 11.7891ZM103.84 5.32031L103.945 6.78516C104.852 5.65234 106.066 5.08594 107.59 5.08594C108.934 5.08594 109.934 5.48047 110.59 6.26953C111.246 7.05859 111.582 8.23828 111.598 9.80859V18H108.211V9.89062C108.211 9.17188 108.055 8.65234 107.742 8.33203C107.43 8.00391 106.91 7.83984 106.184 7.83984C105.23 7.83984 104.516 8.24609 104.039 9.05859V18H100.652V5.32031H103.84Z" fill="white"/>
</svg>
